svgs/sharp-duotone-light/chart-line-down.svg

<svg xmlns="http://www.w3.org/2000/svg" viewBox="0 0 512 512"><!--! Font Awesome Pro 7.1.0 by @fontawesome - https://fontawesome.com License - https://fontawesome.com/license (Commercial License) Copyright 2025 Fonticons, Inc. --><path opacity=".4" fill="currentColor" d="M32 73.4l0 374.6 448 0 0-96-160 0 0-32 105.4 0-105.4-105.4-84.7 84.7-11.3 11.3-11.3-11.3-112-112-11.3-11.3 22.6-22.6c-25.6-25.6-51.1-51.1-76.7-76.7L32 73.4z"/><path fill="currentColor" d="M32 48l0-16-32 0 0 448 512 0 0-32-480 0 0-400zM336 352l144 0 0-160-32 0 0 105.4-116.7-116.7-11.3-11.3-11.3 11.3-84.7 84.7-100.7-100.7-11.3-11.3-22.6 22.6 11.3 11.3 112 112 11.3 11.3 11.3-11.3 84.7-84.7 105.4 105.4-105.4 0 0 32 16 0z"/></svg>

<svg xmlns="http://www.w3.org/2000/svg" viewBox="0 0 512 512"><!--! Font Awesome Pro 6.7.2 by @fontawesome - https://fontawesome.com License - https://fontawesome.com/license (Commercial License) Copyright 2024 Fonticons, Inc. --><defs><style>.fa-secondary{opacity:.4}</style></defs><path class="fa-secondary" d="M32 73.4L32 448l448 0 0-96-16 0-128 0-16 0 0-32 16 0 89.4 0L320 214.6l-84.7 84.7L224 310.6l-11.3-11.3-112-112L89.4 176 112 153.4c-25.6-25.6-51.1-51.1-76.7-76.7L32 73.4z"/><path class="fa-primary" d="M32 48l0-16L0 32 0 48 0 464l0 16 16 0 480 0 16 0 0-32-16 0L32 448 32 48zM336 352l128 0 16 0 0-16 0-128 0-16-32 0 0 16 0 89.4L331.3 180.7 320 169.4l-11.3 11.3L224 265.4 123.3 164.7 112 153.4 89.4 176l11.3 11.3 112 112L224 310.6l11.3-11.3L320 214.6 425.4 320 336 320l-16 0 0 32 16 0z"/></svg>
